X:1
T:Ladies' Pleasure
M:6/8
L:1/8
O:Duns Tew
P:AAB(AC)2A
K:G 
%
P:A
|:d|g2g  B2c|d2B  G2D|G>GG ABc|1B2A A2:|2B2A G2|]
%
P:B
z|A>AA cBc|A>AA cBc|A>Bc def| gfe d2d|
g2g  B2c|d2B  G2D|G>GG ABc| B2A G2 |]
%
P:C
z|A>AA cBc|A>AA cBc|A>Bc def| gfe d3|
M:3/8 
L:1/8
d3|\
M:6/8
g3g3|B3c3|d3B3|\
M:3/8 
L:1/8
G2D|\
M:6/8
G>GG ABc|B2A G2|]
